!!!OTL: Der Spielmannssohn Als ich es chlises Chnaebli war,
!!!ARE: Europa, Mitteleuropa, Schweiz
!!!YOR: 3, S. 178
!!    ????
!!!SCT: Q0062K
!!!YEM: Copyright 1995, estate of Helmut Schaffrath.
**kern
*ICvox
*Ivox
!! Irregular meter.
*MX
*k[b-]
*d:
{8cn
=1
8.a
16a
16a
16a
=2
8b-
8a
4g
8r}
{8g
=3
8a
8b-
8ccn
8dd
=4
4ccn
8a}
{8g
=5
4a
8dd
8.ccn
16a
8a
=6
8.a
16g
8e
4fn}
{8g
=7
4a
8b-
8.ccn
16g
8a
=8
4fn
4d
8r}
==
!!!AGN: Ballade, Verfuehrung, Standesunterschied, Strafe, Gnade
!! Taktart in "FREI" korrigiert, unklar. Verzierung (Vorschlag).
!!!ONB: ESAC (Essen Associative Code) Database: BALLADE
!!!AMT: irregular
!!!AIN: vox
!!!EED: Helmut Schaffrath
!!!EEV: 1.0
*-
